icon-themes/colibre_svg/cmd/sc_hidecolumn.svg

<svg viewBox="0 0 16 16" xmlns="http://www.w3.org/2000/svg">/&amp;amp;gt;<path d="m1 2v12h14v-12z" fill="#fff"/><path d="m0 1v4 9.5c-.00038442.276301.22369855.500384.5.5h15c.276301.000384.500384-.223699.5-.5v-9.5-4zm1 1h4v3h-4v1h4 1v-1-3h4v3 1h1 4v-1h-4v-3h4v3h.001953v9.001953h-14.00390612v-9.001953h.00195312zm0 8v1h4v-1zm4 1v3h1v-3zm6-1v1h4v-1zm0 1h-1v3h1z" fill="#808080"/><path d="m5 1v14h6v-14zm1 1h4v3h-4zm0 4h4v4h-4zm0 5h4v3h-4z" fill="#eac282"/><g fill-rule="evenodd"><path d="m0 1v14l16-14zm1 1h12l-12 10.826172z" fill="#4d82b8"/><path d="m1 2 12 .000391-12 10.826172z" fill="#fff"/></g></svg>

<?xml version="1.0" encoding="UTF-8" standalone="no"?>
<svg xmlns="http://www.w3.org/2000/svg" xmlns:sodipodi="http://sodipodi.sourceforge.net/DTD/sodipodi-0.dtd" xmlns:inkscape="http://www.inkscape.org/namespaces/inkscape" viewBox="0 0 16 16" version="1.1">
 <metadata id="metadata12">
  <rdf:RDF>
   <cc:Work>
    <dc:format>image/svg+xml</dc:format>
    <dc:type rdf:resource="http://purl.org/dc/dcmitype/StillImage"/>
   </cc:Work>
  </rdf:RDF>
 </metadata>
 <defs id="defs10"/>
 <sodipodi:namedview pagecolor="#ffffff" bordercolor="#666666" borderopacity="1" objecttolerance="10" gridtolerance="10" guidetolerance="10" inkscape:pageopacity="0" inkscape:pageshadow="2" inkscape:window-width="2560" inkscape:window-height="1319" id="namedview8" showgrid="true" inkscape:zoom="20.85965" inkscape:cx="8.2107467" inkscape:cy="5.3433904" inkscape:window-x="0" inkscape:window-y="30" inkscape:window-maximized="1" inkscape:current-layer="svg6">
  <inkscape:grid type="xygrid" id="grid836"/>
 </sodipodi:namedview>





     /&amp;gt;
  <path inkscape:connector-curvature="0" d="M 1,2 V 14 H 15 V 2 Z" id="rect840" opacity="1" stroke-dasharray="none" stroke-opacity="1" fill="#ffffff" stroke="none" stroke-linejoin="round" fill-opacity="1" stroke-linecap="round" stroke-width="2" stroke-miterlimit="4"/> <path d="M 0 1 L 0 5 L 0 14.5 C -0.00038442 14.776301 0.22369855 15.000384 0.5 15 L 15.5 15 C 15.776301 15.000384 16.000384 14.776301 16 14.5 L 16 5 L 16 1 L 0 1 z M 1 2 L 5 2 L 5 5 L 1 5 L 1 6 L 5 6 L 6 6 L 6 5 L 6 2 L 10 2 L 10 5 L 10 6 L 11 6 L 15 6 L 15 5 L 11 5 L 11 2 L 15 2 L 15 5 L 15.001953 5 L 15.001953 14.001953 L 0.99804688 14.001953 L 0.99804688 5 L 1 5 L 1 2 z M 1 10 L 1 11 L 5 11 L 5 10 L 1 10 z M 5 11 L 5 14 L 6 14 L 6 11 L 5 11 z M 11 10 L 11 11 L 15 11 L 15 10 L 11 10 z M 11 11 L 10 11 L 10 14 L 11 14 L 11 11 z " id="path4" fill="#808080" fill-opacity="1"/> <path d="M 5 1 L 5 15 L 11 15 L 11 1 L 5 1 z M 6 2 L 10 2 L 10 5 L 6 5 L 6 2 z M 6 6 L 10 6 L 10 10 L 6 10 L 6 6 z M 6 11 L 10 11 L 10 14 L 6 14 L 6 11 z " id="rect838" opacity="1" stroke-dasharray="none" stroke-opacity="1" fill="#eac282" stroke="none" stroke-linejoin="round" fill-opacity="1" stroke-linecap="round" stroke-width="2" stroke-miterlimit="4"/> <path inkscape:connector-curvature="0" d="M 0,1 V 15 L 16,1 Z M 1,2 H 13 L 1,12.826172 Z" id="path6" sodipodi:nodetypes="cccccccc" fill="#4d82b8" fill-rule="evenodd"/> <path inkscape:connector-curvature="0" d="M 1,2 13,2.000391 1,12.826563 Z" id="path8" sodipodi:nodetypes="cccc" fill="#ffffff" fill-rule="evenodd"/></svg>
